X: 41713
T: Valley Of Knockanure, The
R: waltz
M: 3/4
K: Eminor
GA|B3 c B2|A2 B2 A2|G4 GE|A2 (3GAG E2|DB- B,2 D2|E4 D2|E6-|E4 F2|
E3 D E2|G4 A2|B2 A2 B2|d4 dB|A4 BA|G4 A2|B6-|B4 D2|
E2 D2 E2|G4 A2|B3 A B2|d4 B2|A2 B2 A2|G4 A2|B6-|B3 G GA|
B4 B2|AB- B2 A2|G3 A GE|A2 G3 E|D4 D2|E4 D2|E6-|E4||

